X: 3024
Q:"Reel."
M: C
L: 1/8
K: D
g !segno!|\
fde=c (d/c/B/c/) d2 | FDDF A3g |\
fde=c (d/c/B/c/) d2 | E=CCE G3 ::\
=c |\
(B=c/d/) (DF) AFDc | (B=c/d/) DF (A3c) |
(B=c/d/) (DF) AFDc | E=CCE G3 :|\
=c |\
|: e |\
defg afdf | afdf (f/g/a) (gf) |\
[1 defg afdf | ge=ce g2(fd) :|\
[2 defg abaf | ge=ce gbag !segno!|]


